dist/media/images/pacman.svg

<svg width="67" height="72" viewBox="0 0 67 72" fill="none" xmlns="http://www.w3.org/2000/svg">
<g clip-path="url(#clip0_501_547)">
<path d="M65.9626 47.2772C65.9626 48.1959 65.9889 49.0883 65.9889 50.0071C66.1726 50.2171 66.1726 50.4533 66.1726 50.7158C66.1726 52.0545 66.1726 53.3932 66.1726 54.7319C66.1726 54.9944 66.1726 55.2569 65.9626 55.4669C65.7001 55.7031 65.4114 55.6506 65.0964 55.6506C63.8627 55.6506 62.629 55.6506 61.4215 55.6506C60.7653 55.6506 60.7128 55.7031 60.7128 56.3593C60.7128 57.593 60.7128 58.8267 60.7128 60.0342C60.7128 60.3229 60.7391 60.6379 60.5291 60.9004C60.2666 61.1367 59.9778 61.0842 59.6629 61.0842C58.4291 61.0842 57.1954 61.0842 55.988 61.0842C55.3318 61.0842 55.2793 61.1367 55.2793 61.7929C55.2793 63.0266 55.2793 64.2603 55.2793 65.4678C55.2793 65.7565 55.3055 66.0715 55.0955 66.334C54.8068 66.5965 54.4655 66.544 54.1243 66.544C51.1844 66.544 48.2445 66.544 45.2784 66.544C44.4122 66.544 44.3859 66.544 44.3859 67.4364C44.3859 68.6177 44.3859 69.7726 44.3859 70.9538C44.3859 71.2426 44.4121 71.5575 44.1759 71.82C43.9397 72.03 43.6509 72.03 43.3622 72.03C38.4536 72.03 33.545 72.03 28.6365 72.03C28.3477 72.03 28.059 72.03 27.8227 71.82C27.5865 71.5575 27.639 71.2688 27.6127 70.9538C27.6127 69.7201 27.6127 68.5127 27.6127 67.279C27.6127 66.6227 27.5602 66.5702 26.904 66.5702C23.9116 66.5702 20.893 66.5702 17.9006 66.5702C17.5594 66.5702 17.2181 66.6227 16.9294 66.3602C16.6931 66.0977 16.7456 65.809 16.7456 65.494C16.7456 64.2603 16.7456 63.0266 16.7456 61.8191C16.7456 61.1629 16.6931 61.1104 16.0369 61.1104C14.8032 61.1104 13.5695 61.1104 12.362 61.1104C12.0733 61.1104 11.7583 61.1367 11.4958 60.9267C11.2596 60.6642 11.3121 60.3754 11.3121 60.0605C11.3121 58.8268 11.3121 57.593 11.3121 56.3856C11.3121 55.7294 11.2596 55.6769 10.6033 55.6769C9.36964 55.6769 8.13594 55.6769 6.92848 55.6769C6.63974 55.6769 6.32475 55.7031 6.06226 55.4931C5.79977 55.2044 5.85227 54.8631 5.85227 54.5219C5.85227 51.582 5.85227 48.6421 5.85227 45.676C5.85227 44.8097 5.85227 44.7835 4.9598 44.7835C3.77859 44.7835 2.62363 44.7835 1.44242 44.7835C1.15368 44.7835 0.838694 44.8097 0.576203 44.5735C0.366211 44.3373 0.366211 44.0485 0.366211 43.7598C0.366211 38.8512 0.366211 33.9426 0.366211 29.034C0.366211 28.7453 0.366211 28.4566 0.576203 28.2203C0.838694 27.9841 1.12743 28.0366 1.44242 28.0103C2.67613 28.0103 3.90984 28.0103 5.11729 28.0103C5.77352 28.0103 5.82602 27.9578 5.82602 27.3016C5.82602 24.3092 5.82602 21.2906 5.82602 18.2982C5.82602 17.9569 5.77352 17.6157 6.03601 17.327C6.2985 17.0907 6.58724 17.1432 6.90223 17.1432C8.13594 17.1432 9.36964 17.1432 10.5771 17.1432C11.2333 17.1432 11.2858 17.0907 11.2858 16.4345C11.2858 15.2008 11.2858 13.9671 11.2858 12.7596C11.2858 12.4709 11.2596 12.1559 11.4696 11.8934C11.7321 11.6572 12.0208 11.7097 12.3358 11.7097C13.5695 11.7097 14.8032 11.7097 16.0107 11.7097C16.6669 11.7097 16.7194 11.6572 16.7194 11.0009C16.7194 9.76723 16.7194 8.53352 16.7194 7.32606C16.7194 7.03732 16.6931 6.72233 16.9031 6.45984C17.1919 6.19735 17.5331 6.24985 17.8743 6.24985C20.8142 6.24985 23.7541 6.24985 26.7203 6.24985C27.5865 6.24985 27.6127 6.24985 27.6127 5.35738C27.6127 4.17617 27.6127 3.02121 27.6127 1.84001C27.6127 1.55127 27.5865 1.23628 27.8227 0.973787C28.059 0.763794 28.3477 0.763794 28.6365 0.763794C33.545 0.763794 38.4536 0.763794 43.3622 0.763794C43.6509 0.763794 43.9397 0.763794 44.1759 0.973787C44.4121 1.23628 44.3596 1.52502 44.3859 1.84001C44.3859 3.07371 44.3859 4.28117 44.3859 5.51488C44.3859 6.1711 44.4384 6.2236 45.0946 6.2236C48.087 6.2236 51.1057 6.2236 54.0981 6.2236C54.4393 6.2236 54.7805 6.1711 55.0693 6.43359C55.3055 6.69608 55.253 6.98482 55.253 7.29981C55.253 8.53352 55.253 9.76723 55.253 10.9747C55.253 11.6309 55.3055 11.6834 55.9617 11.6834C57.1954 11.6834 58.4292 11.6834 59.6366 11.6834C59.9254 11.6834 60.2403 11.6572 60.5028 11.8672C60.7391 12.1296 60.6866 12.4184 60.6866 12.7334C60.6866 13.9671 60.6866 15.2008 60.6866 16.4082C60.6866 17.0645 60.7391 17.117 61.3953 17.117C62.629 17.117 63.8627 17.117 65.0702 17.117C65.3589 17.117 65.6739 17.0907 65.9364 17.3007C66.1464 17.537 66.1464 17.8257 66.1464 18.1144C66.1464 19.4006 66.1464 20.6868 66.1464 21.973C66.1464 22.2618 66.1464 22.5505 65.9364 22.7868C65.6476 23.0493 65.3064 22.9968 64.9652 22.9968C62.0253 22.9968 59.0854 22.9968 56.1192 22.9968C55.253 22.9968 55.2268 22.9968 55.2268 23.8892C55.2268 25.0704 55.2268 26.2254 55.2268 27.4066C55.2268 27.6953 55.253 28.0103 55.0168 28.2728C54.7018 28.5353 54.3343 28.4828 53.9931 28.4828C49.3207 28.4828 44.6221 28.4828 39.9498 28.4828C38.8998 28.4828 38.8998 28.4828 38.8998 29.5328C38.8998 30.6615 38.8998 31.7902 38.8998 32.9189C38.8998 33.2076 38.8998 33.4964 38.6898 33.7326C38.4011 33.9951 38.0599 33.9164 37.7186 33.9426C34.7787 33.9426 31.8388 33.9426 28.8727 33.9426C28.0065 33.9426 27.9802 33.9426 27.9802 34.8351C27.9802 35.9901 27.9802 37.145 27.9802 38.3C27.9802 38.9562 28.0327 39.0087 28.689 39.0087C31.6814 39.0087 34.7 39.0087 37.6924 39.0087C38.0336 39.0087 38.3749 38.9562 38.6636 39.2187C38.8998 39.4812 38.8736 39.7699 38.8736 40.0849C38.8736 41.2661 38.8736 42.4736 38.8736 43.6548C38.8736 44.4423 38.8998 44.4685 39.7136 44.4685C44.4646 44.4685 49.2157 44.4685 53.9931 44.4685C54.3343 44.4685 54.728 44.416 55.0168 44.6785C55.253 44.941 55.2005 45.2297 55.2005 45.5447C55.2005 46.7784 55.2005 48.0121 55.2005 49.2196C55.2005 49.8758 55.253 49.9283 55.9092 49.9283C57.1429 49.9283 58.3767 49.9283 59.5841 49.9283C60.1616 49.9283 60.2141 49.8496 60.2403 49.2721C60.2666 48.7996 60.2403 48.3271 60.2666 47.8546C60.2928 47.4871 60.4766 47.2509 60.8703 47.2247C62.3928 47.1722 63.9415 47.1984 65.4639 47.2247C65.7264 47.1197 65.8576 47.1722 65.9626 47.2772Z" fill="#FF5520"/>
</g>
<defs>
<clipPath id="clip0_501_547">
<rect width="65.7014" height="71.1087" fill="white" transform="translate(0.497559 0.842529)"/>
</clipPath>
</defs>
</svg>

<svg width="67" height="72" fill="none" xmlns="http://www.w3.org/2000/svg"><g clip-path="url(#clip0_501_547)"><path d="M65.963 47.277c0 .919.026 1.811.026 2.73.184.21.184.446.184.709v4.016c0 .262 0 .525-.21.735-.263.236-.552.184-.867.184h-3.675c-.656 0-.708.052-.708.708v3.675c0 .289.026.604-.184.866-.262.237-.551.184-.866.184h-3.675c-.656 0-.709.053-.709.709v3.675c0 .288.026.603-.184.866-.288.263-.63.21-.97.21h-8.847c-.866 0-.892 0-.892.892v3.518c0 .289.026.604-.21.866-.236.21-.525.21-.814.21H28.636c-.288 0-.577 0-.813-.21-.236-.262-.184-.551-.21-.866v-3.675c0-.656-.053-.709-.709-.709h-9.003c-.342 0-.683.053-.972-.21-.236-.262-.183-.551-.183-.866v-3.675c0-.656-.053-.709-.71-.709h-3.674c-.289 0-.604.027-.866-.183-.236-.263-.184-.552-.184-.867v-3.674c0-.657-.052-.71-.709-.71H6.928c-.288 0-.603.027-.866-.183-.262-.289-.21-.63-.21-.971v-8.846c0-.866 0-.893-.892-.893H1.442c-.288 0-.603.027-.866-.21-.21-.236-.21-.525-.21-.813V29.034c0-.289 0-.577.21-.814.263-.236.551-.183.866-.21h3.675c.657 0 .709-.052.709-.708v-9.004c0-.341-.052-.682.21-.971.263-.236.551-.184.866-.184h3.675c.656 0 .709-.052.709-.709V12.76c0-.29-.026-.604.184-.867.262-.236.55-.183.866-.183h3.675c.656 0 .708-.053.708-.71V7.327c0-.289-.026-.604.184-.866.289-.263.63-.21.971-.21h8.846c.867 0 .893 0 .893-.893V1.84c0-.289-.026-.604.21-.866.236-.21.525-.21.814-.21h14.725c.289 0 .578 0 .814.21.236.262.184.551.21.866v3.675c0 .656.052.709.709.709h9.003c.341 0 .683-.053.971.21.236.262.184.55.184.866v3.675c0 .656.053.708.709.708h3.675c.288 0 .603-.026.866.184.236.263.184.551.184.866v3.675c0 .656.052.709.708.709h3.675c.289 0 .604-.026.866.184.21.236.21.525.21.813v3.859c0 .289 0 .578-.21.814-.288.262-.63.21-.97.21h-8.847c-.866 0-.892 0-.892.892v3.518c0 .288.026.603-.21.866-.315.262-.683.21-1.024.21H39.95c-1.05 0-1.05 0-1.05 1.05v3.386c0 .289 0 .577-.21.814-.289.262-.63.183-.971.21h-8.846c-.867 0-.893 0-.893.892V38.3c0 .656.053.709.709.709h9.003c.342 0 .683-.053.972.21.236.262.21.55.21.866v3.57c0 .787.026.813.84.813h14.28c.34 0 .734-.052 1.023.21.236.263.183.552.183.867v3.675c0 .656.053.708.71.708h3.674c.578 0 .63-.078.656-.656.027-.472 0-.945.027-1.417.026-.368.21-.604.603-.63 1.523-.053 3.072-.027 4.594 0 .262-.105.394-.053.499.052z" fill="#FF5520"/></g><defs><clipPath id="clip0_501_547"><path fill="#fff" transform="translate(.498 .843)" d="M0 0h65.701v71.109H0z"/></clipPath></defs></svg>
